X: 406
T:Jay bien cause de lamenter
N: Derived from Jos3005-Jay_bien_cause_de_lamenter.krn
C: Josquin des Prez
%%abc-version 2.0
%%abcx-abcm2ps-target-version 5.9.1 (29 Sep 2008)
%%abc-creator hum2abc beta
%%abcx-conversion-date 2019/02/12 16:15:55
%%abc-edited-by Jesse Rodin
%%abc-edited-by Will Watson 07/09/2011
%%abcx-initial-encoding-date 2011/09/07/
%%humdrum-veritas 3172113298
%%humdrum-veritas-data 3087506490
%%linebreak <none>
%%barnumbers 0
L: 1/4
M: 2/1
Q: 1/2=120
V: 1 clef=treble
V: 2 clef=treble
V: 3 clef=treble-8
V: 4 clef=treble-8
V: 5 clef=bass
V: 6 clef=bass
K: F
[V:1] z8 | 
[V:2] z8 | 
[V:3] z4D4 | 
[V:4] z8 | 
[V:5] D,4B,,2G,,2 | 
[V:6] z4D,4 | 
[V:1] z8 | 
[V:2] z8 | 
[V:3] F2G2A4 | 
[V:4] z4d4 | 
[V:5] D,8 | 
[V:6] B,,2G,,2D,4- | 
[V:1] z4D4 | 
[V:2] z8 | 
[V:3] B4G2B2 | 
[V:4] B2G2d4- | 
[V:5] G,,3A,,B,,C,D,2- | 
[V:6] D,4z4 | 
[V:1] F2G2A4 | 
[V:2] z8 | 
[V:3] A2G4^F2 | 
[V:4] d4z4 | 
[V:5] D,C,B,,2A,,2A,,2 | 
[V:6] z8 | 
[V:1] B4G2B2 | 
[V:2] z4D4 | 
[V:3] G8 | 
[V:4] G3ABcd2- | 
[V:5] G,,8 | 
[V:6] D,4B,,2G,,2 | 
[V:1] A2G4^F2 | 
[V:2] F2G2A4 | 
[V:3] z4d4 | 
[V:4] dcB2A2A2 | 
[V:5] z2G,,2D,2D,2 | 
[V:6] D,8 | 
[V:1] G8 | 
[V:2] B4G2B2 | 
[V:3] B2G2d4 | 
[V:4] G2B4AG | 
[V:5] G,,8 | 
[V:6] z4z2D,2- | 
[V:1] z8 | 
[V:2] AGG4^F2 | 
[V:3] d2c2d4 | 
[V:4] F2G2A4 | 
[V:5] z8 | 
[V:6] D,2_E,2D,4 | 
[V:1] z4A4 | 
[V:2] G4z4 | 
[V:3] B4d4 | 
[V:4] G4z4 | 
[V:5] z2D,2F,2F,2 | 
[V:6] G,,4z2D,2 | 
[V:1] A2A2A4 | 
[V:2] A4A2A2 | 
[V:3] d2d2d4- | 
[V:4] z2A2F2D2 | 
[V:5] D,4z2D,2 | 
[V:6] F,2F,2D,4 | 
[V:1] z2A2F2D2 | 
[V:2] A4z2A2 | 
[V:3] d8- | 
[V:4] A4z2d2 | 
[V:5] F,2F,2D,4 | 
[V:6] z2D,2F,2F,2 | 
[V:1] A6F2 | 
[V:2] F2D2A4 | 
[V:3] d4z4 | 
[V:4] f3edcf2 | 
[V:5] z2D,2F,4 | 
[V:6] D,6D,2 | 
[V:1] A2B2G4 | 
[V:2] z2D2G4 | 
[V:3] z2d2B2G2 | 
[V:4] e2d2z4 | 
[V:5] z4G,4 | 
[V:6] C,2B,,2_E,4 | 
[V:1] F3GABc2- | 
[V:2] z8 | 
[V:3] d4z4 | 
[V:4] z2d2f3e | 
[V:5] B,3A,A,2G,F, | 
[V:6] D,4z4 | 
[V:1] cBB4A2 | 
[V:2] z4z2A2 | 
[V:3] z2d2f4- | 
[V:4] d2cBc4 | 
[V:5] G,4F,4 | 
[V:6] z8 | 
[V:1] B2zAF2D2 | 
[V:2] F2D2A4- | 
[V:3] f4z2d2- | 
[V:4] d4z2d2 | 
[V:5] z2D,4F,2 | 
[V:6] D,4F,2F,2 | 
[V:1] A4z2d2 | 
[V:2] A2F2A2B2 | 
[V:3] dcf2e2d2- | 
[V:4] f4z4 | 
[V:5] F,2D,2z2F,2 | 
[V:6] D,3D,C,2B,,2 | 
[V:1] B2G2d4 | 
[V:2] G4F3G | 
[V:3] d2c2d4 | 
[V:4] z4z2d2 | 
[V:5] G,2G,2B,4 | 
[V:6] _E,4D,4 | 
[V:1] z8 | 
[V:2] ABc3BB2- | 
[V:3] z4z2d2 | 
[V:4] f3ed2cB | 
[V:5] F,4z4 | 
[V:6] z2F,2F,2G,2 | 
[V:1] z8 | 
[V:2] B2A2B4- | 
[V:3] f4z2B2 | 
[V:4] c4B2d2 | 
[V:5] z2F,2G,2G,2 | 
[V:6] F,4B,,4 | 
[V:1] z2B2B2B2 | 
[V:2] B8 | 
[V:3] G2G2B3c | 
[V:4] d2G2d4 | 
[V:5] B,4B,,4 | 
[V:6] z2G,,2G,,2G,,2 | 
[V:1] F2A3GB2- | 
[V:2] z8 | 
[V:3] d8 | 
[V:4] z2A2d2d2 | 
[V:5] z2D,2D,2G,,2 | 
[V:6] D,6G,2 | 
[V:1] BAA4G2 | 
[V:2] z2A2B2B2 | 
[V:3] z2d2d2G2 | 
[V:4] f3edc_e2- | 
[V:5] D,4G,4 | 
[V:6] G,2F,2B,4 | 
[V:1] A4z4 | 
[V:2] F2A3GB2- | 
[V:3] d4z2_e2 | 
[V:4] e2d2d2G2 | 
[V:5] D,2F,2_E,4 | 
[V:6] A,4z2G,2 | 
[V:1] z4z2G2 | 
[V:2] BAA4G2 | 
[V:3] f2f2d4 | 
[V:4] d8 | 
[V:5] D,4z2G,2 | 
[V:6] G,2F,2B,4 | 
[V:1] c2c2BA2G | 
[V:2] A4z2G2 | 
[V:3] c4d4 | 
[V:4] z4z2G2 | 
[V:5] G,2F,2B,4 | 
[V:6] A,4z4 | 
[V:1] A4z2D2 | 
[V:2] c2c2BA2G | 
[V:3] e2f4ed | 
[V:4] G2F2B4 | 
[V:5] A,4z4 | 
[V:6] z8 | 
[V:1] D2C2F3E | 
[V:2] A8- | 
[V:3] f2e2d4 | 
[V:4] A4z2d2 | 
[V:5] z8 | 
[V:6] z8 | 
[V:1] FDE3DD2- | 
[V:2] A8 | 
[V:3] A8- | 
[V:4] d2c2f3e/d/ | 
[V:5] z8 | 
[V:6] z8 | 
[V:1] D2^C2D4 | 
[V:2] A4z2B2 | 
[V:3] A4z2d2 | 
[V:4] e4d2f2 | 
[V:5] z8 | 
[V:6] z4D,4 | 
[V:1] z4z2A2 | 
[V:2] A2G2A4 | 
[V:3] c2B2A2f2 | 
[V:4] f2e2d2zd | 
[V:5] z4z2D,2 | 
[V:6] F,2G,2D,4 | 
[V:1] A2G2A4 | 
[V:2] z4z2A2 | 
[V:3] f2e2d3F | 
[V:4] c2B2A2d2- | 
[V:5] F,2G,2D,4 | 
[V:6] z4z2D,2 | 
[V:1] z4z2A2 | 
[V:2] A2G2F3G | 
[V:3] F2G2A2d2 | 
[V:4] dAc2d2AB | 
[V:5] z4z2D,2 | 
[V:6] F,2E,2D,4 | 
[V:1] A2G2F4 | 
[V:2] ABc2B2A2- | 
[V:3] e2c2f3e | 
[V:4] cde2d2c2 | 
[V:5] C,2C,2D,2F,2- | 
[V:6] z8 | 
[V:1] z8 | 
[V:2] AGG4^F2 | 
[V:3] d2c2d4 | 
[V:4] d2G2A4 | 
[V:5] F,2E,2D,4 | 
[V:6] z8 | 
[V:1] z2B2A2G2 | 
[V:2] G4z4 | 
[V:3] z2d2f2e2 | 
[V:4] G2d2c2B2 | 
[V:5] G,,4z4 | 
[V:6] z2B,2F,2G,2 | 
[V:1] A4z4 | 
[V:2] z2A2A2G2 | 
[V:3] d3FF2G2 | 
[V:4] A2d3Ac2 | 
[V:5] z2D,2F,2E,2 | 
[V:6] D,4z4 | 
[V:1] z2A2A2G2 | 
[V:2] F3GABc2 | 
[V:3] A2d2e2c2 | 
[V:4] d2ABcde2 | 
[V:5] D,4z4 | 
[V:6] z2D,2C,2C,2 | 
[V:1] F4z4 | 
[V:2] B2A3GG2- | 
[V:3] f3ed2c2 | 
[V:4] d2c2d2G2 | 
[V:5] z8 | 
[V:6] D,2F,4E,2 | 
[V:1] z2A2B2B2 | 
[V:2] G2^F2G4- | 
[V:3] d4z2B2 | 
[V:4] A4G4- | 
[V:5] z2D,2D,2_E,2 | 
[V:6] D,4G,,4- | 
[V:1] G6c2- | 
[V:2] G8- | 
[V:3] B2B2c4 | 
[V:4] G8- | 
[V:5] D,4_E,4- | 
[V:6] G,,4C,4- | 
[V:1] c2c2c4 | 
[V:2] G8 | 
[V:3] _e4c2c2 | 
[V:4] G8 | 
[V:5] E,2C,2_E,4 | 
[V:6] C,2C,2C,4 | 
[V:1] B8 |]  
[V:2] G8 |]  
[V:3] d8 |]  
[V:4] G8 |]  
[V:5] D,8 |]  
[V:6] G,,8 |]  



